assets/img/AD-Andorra.svg

<?xml version="1.0" encoding="UTF-8"?>
<svg width="32px" height="24px" viewBox="0 0 32 24" version="1.1" xmlns="http://www.w3.org/2000/svg" xmlns:xlink="http://www.w3.org/1999/xlink">
    <title>flags/L/AD - Andorra</title>
    <defs>
        <rect id="path-1" x="0" y="0" width="32" height="24"></rect>
        <path d="M7.64577192,0.0882328605 L7.64577192,7.11805319 C7.64488194,7.53169321 7.42577847,7.82893938 6.98846152,8.00979169 C6.55114457,8.190644 6.07529716,8.24870539 5.56091927,8.18397588 C5.06874363,8.07815343 4.69272868,8.07815343 4.43287444,8.18397588 C4.22596245,8.26823825 4.05607381,8.32484803 3.92320849,8.35380523 L3.92265916,8.3706018 C3.90819858,8.36872233 3.89314144,8.36639728 3.87748774,8.36362667 L3.82849193,8.3706018 L3.82849193,8.3706018 L3.82887766,8.3540087 C3.69587468,8.32511365 3.52567434,8.26843605 3.31827665,8.18397588 C3.0584224,8.07815343 2.68240746,8.07815343 2.19023182,8.18397588 C1.67585393,8.24870539 1.20000651,8.190644 0.762689566,8.00979169 C0.325372618,7.82893938 0.106269151,7.53169321 0.105379166,7.11805319 L0.105379166,7.11805319 L0.105379166,0.0882328605 L7.64577192,0.0882328605 Z" id="path-3"></path>
    </defs>
    <g id="Symbols" stroke="none" stroke-width="1" fill="none" fill-rule="evenodd">
        <g id="flag">
            <mask id="mask-2" fill="white">
                <use xlink:href="#path-1"></use>
            </mask>
            <g id="mask"></g>
            <g id="contents" mask="url(#mask-2)">
                <polygon id="middle" fill="#FFD018" points="8 0 24 0 24 24 8 24"></polygon>
                <rect id="left" fill="#2E42A5" x="0" y="0" width="8" height="24"></rect>
                <polygon id="right" fill="#E31D1C" points="24 0 32 0 32 24 24 24"></polygon>
                <g id="mark" transform="translate(9.800000, 4.400000)">
                    <path d="M8.28967005,0.31964686 C8.53426612,0.706300068 8.23857815,1.10524776 8.16489305,1.24113876 C8.09120795,1.37702976 7.93321321,1.87560946 8.28967005,2.03955702 C8.64612689,2.20350459 9.16905449,2.11289638 9.43943517,1.87560946 C9.21843374,1.77566327 9.13648061,1.6449316 9.19357579,1.48341447 C9.27921856,1.24113876 9.86251852,0.557419835 10.9309524,1.06614765 C11.9993863,1.57487546 12.1829931,2.04096412 11.8905554,2.4182354 C11.5981177,2.79550669 10.8149307,3.44272649 11.0036276,3.87943676 C11.0943066,3.7197389 11.2008349,3.67981443 11.3232125,3.75966337 C11.44559,3.8395123 11.4936092,3.9494929 11.4672701,4.08960518 C12.3358708,4.04167877 12.8177865,4.43906152 12.9130169,5.28175345 C13.0082474,6.12444537 12.726515,6.65788969 12.0678198,6.88208639 C12.2757324,7.10932468 12.3112687,7.29709333 12.1744288,7.44539233 C12.0375889,7.59369132 11.8907304,7.62289915 11.7338534,7.5330158 C11.4475695,7.80363233 11.3759986,8.09308116 11.5191405,8.40136229 C11.6622824,8.70964341 11.7860874,8.9091094 11.8905554,8.99976025 C11.9107272,8.90473178 12.0053517,8.85721754 12.1744288,8.85721754 C12.4280445,8.85721754 12.8998877,9.62757924 12.6072076,9.86699812 C12.4120875,10.0266107 12.2678279,10.0916354 12.1744288,10.0620723 C12.596206,10.4119692 12.7404656,10.8646976 12.6072076,11.4202574 C12.4073206,12.2535972 11.8730633,12.6549169 11.3232125,12.8882811 C10.7733617,13.1216452 10.1175481,13.1216452 9.27489602,13.1216452 C8.71312795,13.1216452 8.26590034,13.2964089 7.93321321,13.6459363 C8.21782728,13.7555189 8.31262682,13.938114 8.21761183,14.1937216 C8.12259683,14.4493291 7.96677009,14.5771329 7.75013159,14.5771329 C7.59147702,14.8053945 7.4358792,14.8812638 7.28333812,14.8047407 C7.13079704,14.7282177 7.00641304,14.6523484 6.91018612,14.5771329 C6.77833002,14.8437442 6.64131145,14.9931667 6.4991304,15.0254005 C6.48903506,15.0320501 6.47901827,15.031477 6.46902674,15.0303309 L6.44017535,15.0320501 L6.44017535,15.0320501 C6.29794099,14.9931667 6.16092242,14.8437442 6.02906632,14.5771329 C5.9328394,14.6523484 5.8084554,14.7282177 5.65591432,14.8047407 C5.50337324,14.8812638 5.34777542,14.8053945 5.18912085,14.5771329 C4.97248235,14.5771329 4.81665561,14.4493291 4.72164061,14.1937216 C4.62662562,13.938114 4.72142516,13.7555189 5.00603924,13.6459363 C4.6733521,13.2964089 4.22612449,13.1216452 3.66435642,13.1216452 C2.82170431,13.1216452 2.16589079,13.1216452 1.61603998,12.8882811 C1.06618918,12.6549169 0.53193183,12.2535972 0.332044844,11.4202574 C0.198786854,10.8646976 0.343046439,10.4119692 0.764823599,10.0620723 C0.671424506,10.0916354 0.527164921,10.0266107 0.332044844,9.86699812 C0.0393647287,9.62757924 0.511207896,8.85721754 0.764823599,8.85721754 C0.933900734,8.85721754 1.02852522,8.90473178 1.04869705,8.99976025 C1.15316507,8.9091094 1.27697004,8.70964341 1.42011196,8.40136229 C1.56325388,8.09308116 1.49168292,7.80363233 1.20539908,7.5330158 C1.048522,7.62289915 0.901663504,7.59369132 0.764823599,7.44539233 C0.627983694,7.29709333 0.663520056,7.10932468 0.871432684,6.88208639 C0.212737468,6.65788969 -0.0689949165,6.12444537 0.026235531,5.28175345 C0.121465979,4.43906152 0.603381597,4.04167877 1.47198239,4.08960518 C1.4456432,3.9494929 1.4936624,3.8395123 1.61603998,3.75966337 C1.73841757,3.67981443 1.84494586,3.7197389 1.93562486,3.87943676 C2.12432173,3.44272649 1.34113478,2.79550669 1.04869705,2.4182354 C0.756259322,2.04096412 0.939866103,1.57487546 2.00830001,1.06614765 C3.07673393,0.557419835 3.66003388,1.24113876 3.74567665,1.48341447 C3.80277183,1.6449316 3.7208187,1.77566327 3.49981727,1.87560946 C3.77019795,2.11289638 4.29312555,2.20350459 4.64958239,2.03955702 C5.00603924,1.87560946 4.84804449,1.37702976 4.77435939,1.24113876 C4.70067429,1.10524776 4.40498632,0.706300068 4.64958239,0.31964686 C4.89417847,-0.067006349 5.31764251,-0.067006349 5.65591432,0.152561014 C5.88142887,0.298939255 6.16248312,0.405147386 6.49907709,0.471185407 L6.4691923,0.463397565 L6.63546697,0.426742181 C6.88696943,0.36105733 7.10292648,0.269663607 7.28333812,0.152561014 C7.62160993,-0.067006349 8.04507397,-0.067006349 8.28967005,0.31964686 Z" id="bg" fill="#BF9937"></path>
                    <path d="M2.31014898,11.5978184 L2.41524728,11.343707 C3.62294339,11.8613786 4.99728039,12.1205776 6.53913925,12.1205776 C8.0802236,12.1205776 9.41758704,11.8616449 10.5520998,11.3449235 L10.662703,11.5966018 C9.49132842,12.1301122 8.11651711,12.3962953 6.53913925,12.3962953 C4.96253588,12.3962953 3.55257879,12.1303785 2.31014898,11.5978184 Z" id="txt" fill="#805440" fill-rule="nonzero"></path>
                    <g id="masked" transform="translate(2.572917, 2.744444)">
                        <mask id="mask-4" fill="white">
                            <use xlink:href="#path-3"></use>
                        </mask>
                        <use id="mask" fill="#BF9937" xlink:href="#path-3"></use>
                        <g id="squares" mask="url(#mask-4)">
                            <rect id="Rectangle-74" fill="#D00F3A" x="0" y="0" width="3.65625" height="3.9"></rect>
                            <polygon id="Rectangle-74" fill="#FEDF00" points="4.0625 0 7.85416667 0 7.85416667 3.9 4.0625 3.9"></polygon>
                            <polygon id="Rectangle-74" fill="#FEDF00" points="4.0625 4.33333333 7.71875 4.33333333 7.71875 8.37777778 4.0625 8.37777778"></polygon>
                            <rect id="Rectangle-74" fill="#FEDF00" x="0" y="4.33333333" width="3.65625" height="4.04444444"></rect>
                            <path d="M6.77079545,6.15410388 C6.88408227,6.03917375 6.94072567,5.84604235 6.94072567,5.57470968 C6.94072567,5.16771066 7.08389703,4.89846516 6.77079545,4.89846516 C6.45769388,4.89846516 6.03252526,4.89846516 5.73314618,4.89846516 C5.4337671,4.89846516 5.58753527,5.07939879 5.286479,4.89846516 C4.98542272,4.71753153 4.74283952,4.77510502 4.74283952,4.89846516 C4.74283952,5.0218253 5.04664029,4.96752863 5.04664029,5.21812812 C5.04664029,5.46872761 5.1616043,5.25081815 5.1616043,5.70246101 C5.1616043,6.15410388 5.22510228,6.07828131 5.25579064,6.07828131 C5.286479,6.07828131 5.286479,5.99669896 5.286479,5.87796809 C5.286479,5.75923721 5.27122273,5.28031613 5.35473525,5.4275129 C5.43824777,5.57470968 5.47952613,5.50518711 5.52074475,5.67247234 C5.56196338,5.83975756 5.6728355,6.00245874 5.59679013,6.07828131 C5.52074475,6.15410388 5.3672004,6.21922909 5.48199526,6.21922909 C5.59679013,6.21922909 5.76361604,6.02662191 5.68020308,5.70246101 C5.62459445,5.48635375 5.65911587,5.47635753 5.78376737,5.67247234 C6.0785635,5.73788364 6.23543322,5.72570612 6.25437653,5.63593976 C6.2827915,5.50129022 6.32337292,5.76471709 6.44320562,5.76471709 C6.56303832,5.76471709 6.32757444,6.03578033 6.22862982,6.07828131 C6.16266675,6.1066153 6.16266675,6.13188949 6.22862982,6.15410388 C6.2901458,6.20465226 6.34128743,6.20465226 6.3820547,6.15410388 C6.44320562,6.07828131 6.66198293,5.83021235 6.66198293,5.70246101 C6.66198293,5.57470968 6.80224573,5.6514661 6.80224573,5.76471709 C6.80224573,5.87796809 6.67208713,6.28435431 6.72144129,6.21922909 C6.75434407,6.17581228 6.77079545,6.15410388 6.77079545,6.15410388 Z" id="Path-306" fill="#D00F3A"></path>
                            <path d="M6.77079545,7.74299277 C6.88408227,7.62806264 6.94072567,7.43493124 6.94072567,7.16359856 C6.94072567,6.75659955 7.08389703,6.48735405 6.77079545,6.48735405 C6.45769388,6.48735405 6.03252526,6.48735405 5.73314618,6.48735405 C5.4337671,6.48735405 5.58753527,6.66828768 5.286479,6.48735405 C4.98542272,6.30642042 4.74283952,6.36399391 4.74283952,6.48735405 C4.74283952,6.61071419 5.04664029,6.55641752 5.04664029,6.80701701 C5.04664029,7.0576165 5.1616043,6.83970704 5.1616043,7.2913499 C5.1616043,7.74299277 5.22510228,7.6671702 5.25579064,7.6671702 C5.286479,7.6671702 5.286479,7.58558785 5.286479,7.46685698 C5.286479,7.3481261 5.27122273,6.86920502 5.35473525,7.01640179 C5.43824777,7.16359856 5.47952613,7.094076 5.52074475,7.26136122 C5.56196338,7.42864645 5.6728355,7.59134763 5.59679013,7.6671702 C5.52074475,7.74299277 5.3672004,7.80811798 5.48199526,7.80811798 C5.59679013,7.80811798 5.76361604,7.61551079 5.68020308,7.2913499 C5.62459445,7.07524264 5.65911587,7.06524642 5.78376737,7.26136122 C6.0785635,7.32677253 6.23543322,7.314595 6.25437653,7.22482865 C6.2827915,7.09017911 6.32337292,7.35360598 6.44320562,7.35360598 C6.56303832,7.35360598 6.32757444,7.62466922 6.22862982,7.6671702 C6.16266675,7.69550419 6.16266675,7.72077837 6.22862982,7.74299277 C6.2901458,7.79354114 6.34128743,7.79354114 6.3820547,7.74299277 C6.44320562,7.6671702 6.66198293,7.41910124 6.66198293,7.2913499 C6.66198293,7.16359856 6.80224573,7.24035499 6.80224573,7.35360598 C6.80224573,7.46685698 6.67208713,7.8732432 6.72144129,7.80811798 C6.75434407,7.76470117 6.77079545,7.74299277 6.77079545,7.74299277 Z" id="Path-306" fill="#D00F3A"></path>
                            <path d="M1.84752498,3.03918213 C1.84823797,3.03809898 1.84891013,3.03697334 1.84953716,3.03580367 C1.84932815,3.03619356 1.84911956,3.03660485 1.84891146,3.03703745 L1.84752498,3.03918213 Z M1.83701884,3.15318746 C1.83701884,3.31826476 1.7530682,3.44433422 1.56171444,3.63740573 C1.55203096,3.64717614 1.49957339,3.69964111 1.48522112,3.71419796 C1.45743569,3.74237946 1.43620796,3.76476738 1.4176216,3.78575644 C1.25414128,3.97037024 0.968190594,3.81121342 0.894967682,3.63200468 C0.883245245,3.60331471 0.825834071,3.50028357 0.73253715,3.33894714 C0.729973005,3.33451359 0.729973005,3.33451359 0.727407932,3.33008062 C0.710925627,3.30159923 0.69393668,3.27233533 0.672363025,3.23524097 C0.646083792,3.19007287 0.646083792,3.19007287 0.622313239,3.14919565 C0.585642399,3.08608845 0.566412186,3.05262632 0.556828255,3.0349887 C0.550211932,3.02281247 0.512372569,3.03696969 0.445996062,3.12168461 C0.420695874,3.15397469 0.472559383,3.26437424 0.637721302,3.44102507 L0.544095998,3.54533068 C0.314266199,3.32122838 0.203125,3.17603916 0.203125,3.07536964 C0.203125,2.90736757 0.338149719,2.81719678 0.589779445,2.81719678 C0.748041147,2.81719678 0.832522364,2.92865587 0.95922327,3.20915898 C0.965266834,3.22253883 0.986992917,3.27097314 0.99153702,3.28105043 C1.05400689,3.41958754 1.09408702,3.49507187 1.14275937,3.55655343 C1.20056676,3.62957411 1.23523336,3.62614232 1.29491229,3.55086853 C1.35365304,3.47677809 1.4080204,3.36124951 1.48961071,3.15316023 C1.54937068,3.00074742 1.55733687,3.01269671 1.46048202,3.06356568 L1.39727602,3.096762 L0.823230492,1.71753875 L1.91979656,0.386142927 L1.91979656,3.15466936 L1.839813,3.08235092 C1.83809028,3.1011595 1.83701884,3.12496184 1.83701884,3.15318746 Z M1.90937494,3.15466936 L1.90937494,0.386142927 L3.00594101,1.71753875 L2.43189548,3.096762 L2.36868948,3.06356568 C2.27183463,3.01269671 2.27980082,3.00074742 2.33956079,3.15316023 C2.42115109,3.36124951 2.47551846,3.47677809 2.53425921,3.55086853 C2.59393814,3.62614232 2.62860474,3.62957411 2.68641213,3.55655343 C2.73508448,3.49507187 2.77516461,3.41958754 2.83763448,3.28105043 C2.84217858,3.27097314 2.86390467,3.22253883 2.86994823,3.20915898 C2.99664914,2.92865587 3.08113035,2.81719678 3.23939205,2.81719678 C3.49102178,2.81719678 3.6260465,2.90736757 3.6260465,3.07536964 C3.6260465,3.17603916 3.5149053,3.32122838 3.2850755,3.54533068 L3.1914502,3.44102507 C3.35661212,3.26437424 3.40847563,3.15397469 3.38317544,3.12168461 C3.31679893,3.03696969 3.27895957,3.02281247 3.27234324,3.0349887 C3.26275931,3.05262632 3.2435291,3.08608845 3.20685826,3.14919565 C3.18308771,3.19007287 3.18308771,3.19007287 3.15680847,3.23524097 C3.13523482,3.27233533 3.11824587,3.30159923 3.10176357,3.33008062 C3.09919849,3.33451359 3.09919849,3.33451359 3.09663435,3.33894714 C3.00333743,3.50028357 2.94592625,3.60331471 2.93420382,3.63200468 C2.86098091,3.81121342 2.57503022,3.97037024 2.4115499,3.78575644 C2.39296354,3.76476738 2.37173581,3.74237946 2.34395038,3.71419796 C2.32959811,3.69964111 2.27714054,3.64717614 2.26745706,3.63740573 C2.0761033,3.44433422 1.99215265,3.31826476 1.99215265,3.15318746 C1.99215265,3.12496184 1.99108122,3.1011595 1.9893585,3.08235092 L1.90937494,3.15466936 Z" id="Combined-Shape" fill="#FFFFFF" fill-rule="nonzero"></path>
                            <path d="M1.9007145,0.686641899 L1.9007145,2.91343838 C1.88007905,2.92136094 1.74523735,2.93796847 1.73122729,2.96410317 C1.70980811,3.00405901 1.70160218,3.06482069 1.70160218,3.15318746 C1.70160218,3.26240537 1.63477593,3.36405149 1.47445791,3.5266033 C1.51660572,3.44895758 1.55982152,3.34845138 1.61454116,3.20889351 C1.70636917,2.97469382 1.64396033,2.8431881 1.4657301,2.90525275 L1.4657301,2.90525275 L0.982165218,1.74342167 L1.9007145,0.686641899 Z M1.90558823,0.678456275 L2.84700628,1.74342167 L2.3634414,2.90525275 C2.18521117,2.8431881 2.12280233,2.97469382 2.21463034,3.20889351 C2.26934997,3.34845138 2.31256577,3.44895758 2.35471359,3.5266033 C2.19439557,3.36405149 2.12756932,3.26240537 2.12756932,3.15318746 C2.12756932,3.06482069 2.11936339,3.00405901 2.09794421,2.96410317 C2.08393415,2.93796847 1.92622368,2.91317532 1.90558823,2.90525275 L1.90558823,2.90525275 L1.90558823,0.678456275 Z" id="Combined-Shape" fill="#FEDF00" fill-rule="nonzero"></path>
                        </g>
                        <path d="M0.8125,4.33333333 L0.8125,8.37777778 L0.40625,8.37777778 L0.40625,4.33333333 L0.8125,4.33333333 Z M1.625,4.33333333 L1.625,8.37777778 L1.21875,8.37777778 L1.21875,4.33333333 L1.625,4.33333333 Z M2.4375,4.33333333 L2.4375,8.37777778 L2.03125,8.37777778 L2.03125,4.33333333 L2.4375,4.33333333 Z M3.25,4.33333333 L3.25,8.37777778 L2.84375,8.37777778 L2.84375,4.33333333 L3.25,4.33333333 Z" id="red" fill="#D00F3A" mask="url(#mask-4)"></path>
                        <path d="M5.01041667,0 L5.01041667,4.04444444 L4.60416667,4.04444444 L4.60416667,0 L5.01041667,0 Z M5.82291667,0 L5.82291667,4.04444444 L5.41666667,4.04444444 L5.41666667,0 L5.82291667,0 Z M6.63541667,0 L6.63541667,4.04444444 L6.22916667,4.04444444 L6.22916667,0 L6.63541667,0 Z M7.44791667,0 L7.44791667,4.04444444 L7.04166667,4.04444444 L7.04166667,0 L7.44791667,0 Z" id="red" fill="#D00F3A" mask="url(#mask-4)"></path>
                    </g>
                </g>
            </g>
        </g>
    </g>
</svg>

<?xml version="1.0" encoding="UTF-8"?>
<svg viewBox="0 0 32 24" xmlns="http://www.w3.org/2000/svg" xmlns:xlink="http://www.w3.org/1999/xlink">
<defs>
<path id="j" d="M0 0h32v24H0z"/>
<path id="h" d="M7.646.088v7.03c-.001.414-.22.711-.657.892a2.77 2.77 0 01-1.428.174c-.492-.106-.868-.106-1.128 0a3.303 3.303 0 01-.51.17v.017l-.045-.007-.049.007v-.017a3.26 3.26 0 01-.511-.17c-.26-.106-.636-.106-1.128 0A2.77 2.77 0 01.763 8.01c-.437-.181-.656-.478-.657-.892V.088h7.54z"/>
<path id="f" d="M6.771 6.154c.113-.115.17-.308.17-.579 0-.407.143-.676-.17-.676H5.733c-.299 0-.146.181-.447 0s-.544-.123-.544 0 .304.069.304.32.115.033.115.484.063.376.094.376.031-.082.031-.2-.015-.598.068-.45.125.078.166.245.152.33.076.406-.23.141-.115.141.282-.193.198-.517c-.056-.216-.021-.226.104-.03.295.065.452.053.471-.037.028-.135.069.129.189.129s-.116.271-.215.314c-.066.028-.066.054 0 .076.062.051.113.051.153 0 .061-.076.28-.324.28-.452s.14-.051.14.062-.13.52-.081.455l.049-.065z"/>
</defs>
<g fill="none" fill-rule="evenodd">
<mask id="i" fill="#fff">
<use xlink:href="#j"/>
</mask>
<g mask="url(#i)">
<path d="M8 0h16v24H8z" fill="#ffd018"/>
<path d="M0 0h8v24H0z" fill="#2e42a5"/>
<path d="m24 0h8v24h-8z" fill="#e31d1c"/>
<path d="M18.09 4.72c.245.387-.051.786-.125.921s-.232.634.125.798.879.073 1.15-.164c-.221-.1-.303-.231-.246-.392.086-.242.669-.926 1.737-.417s1.252.975.96 1.352-1.076 1.024-.887 1.461c.091-.16.197-.2.32-.12s.17.19.144.33c.869-.048 1.351.349 1.446 1.192s-.187 1.376-.845 1.6c.208.227.243.415.107.563s-.284.178-.441.088c-.286.271-.358.56-.215.868s.267.508.371.598c.02-.095.115-.143.284-.143.254 0 .725.77.433 1.01-.195.16-.339.225-.433.195.422.35.566.803.433 1.358-.2.833-.734 1.235-1.284 1.468s-1.206.233-2.048.233c-.562 0-1.009.175-1.342.524.285.11.379.292.284.548s-.251.383-.467.383c-.159.228-.314.304-.467.228s-.277-.152-.373-.228c-.132.267-.269.416-.411.448-.01.007-.02.006-.03.005l-.029.002c-.142-.039-.279-.188-.411-.455-.096.075-.221.151-.373.228s-.308.001-.467-.228c-.217 0-.372-.128-.467-.383s0-.438.284-.548c-.333-.35-.78-.524-1.342-.524-.843 0-1.498 0-2.048-.233s-1.085-.632-1.285-1.466c-.133-.556.011-1.008.433-1.358-.093.03-.238-.035-.433-.195-.293-.239.179-1.01.433-1.01.169 0 .264.048.284.143.104-.091.228-.29.371-.598s.072-.598-.215-.868c-.157.09-.304.061-.441-.088s-.101-.336.107-.563c-.659-.224-.94-.758-.845-1.6s.577-1.24 1.446-1.192c-.026-.14.022-.25.144-.33s.229-.04.32.12c.189-.437-.594-1.084-.887-1.461s-.109-.843.96-1.352 1.652.175 1.737.417c.057.162-.025.292-.246.392.27.237.793.328 1.15.164s.198-.663.125-.798-.37-.537-.125-.923.668-.387 1.006-.167c.226.146.507.253.843.319l-.03-.008.166-.037a2.22 2.22 0 00.648-.274c.338-.22.762-.22 1.006.167z" fill="#bf9937"/>
<path d="M12.11 15.998l.105-.254c1.208.518 2.582.777 4.124.777s2.878-.259 4.013-.776l.111.252c-1.171.534-2.546.8-4.124.8s-2.987-.266-4.229-.798z" fill="#805440" fill-rule="nonzero"/>
<g transform="translate(12.373 7.144)">
<mask id="g" fill="#fff">
<use xlink:href="#h"/>
</mask>
<use fill="#bf9937" xlink:href="#h"/>
<g mask="url(#g)">
<path d="M0 0h3.656v3.9H0z" fill="#d00f3a"/>
<path d="M4.063 0h3.792v3.9H4.063zm0 4.333h3.656v4.044H4.063zM0 4.333h3.656v4.044H0z" fill="#fedf00"/>
<g fill="#d00f3a">
<use xlink:href="#f"/>
<use y="1.589" xlink:href="#f"/>
</g>
<g fill-rule="nonzero">
<path d="M1.848 3.039zm-.011.114c0 .165-.084.291-.275.484l-.076.077-.068.072c-.163.185-.449.025-.523-.154a4.67 4.67 0 00-.162-.293l-.06-.104-.05-.086-.065-.114c-.007-.012-.044.002-.111.087-.025.032.027.143.192.319l-.094.104c-.23-.224-.341-.369-.341-.47 0-.168.135-.258.387-.258.158 0 .243.111.369.392l.032.072a1.3 1.3 0 00.151.276c.058.073.092.07.152-.006s.113-.19.195-.398c.06-.152.068-.14-.029-.09l-.063.033-.574-1.379L1.92.386v2.769l-.08-.072a.702.702 0 00-.003.071zm.072.001V.386l1.097 1.331-.574 1.379-.063-.033c-.097-.051-.089-.063-.029.09.082.208.136.324.195.398s.094.079.152.006c.049-.061.089-.137.151-.276l.032-.072c.127-.281.211-.392.369-.392.252 0 .387.09.387.258 0 .101-.111.246-.341.47l-.094-.104c.165-.177.217-.287.192-.319-.066-.085-.104-.099-.111-.087l-.065.114-.05.086-.055.095-.168.302c-.073.179-.359.338-.523.154l-.068-.072-.076-.077c-.191-.193-.275-.319-.275-.484l-.003-.071-.08.072z" fill="#fff"/>
<path d="M1.901.687v2.227c-.021.008-.155.025-.169.051a.425.425 0 00-.03.189c0 .109-.067.211-.227.373.042-.078.085-.178.14-.318.092-.234.029-.366-.149-.304L.982 1.743 1.901.687zm.005-.008l.941 1.065-.484 1.162c-.178-.062-.241.069-.149.304l.14.318c-.16-.163-.227-.264-.227-.373a.41.41 0 00-.03-.189c-.014-.026-.172-.051-.192-.059V.678z" fill="#fedf00"/>
</g>
</g>
<path d="M.813 4.333v4.044H.406V4.333h.406zm.813 0v4.044H1.22V4.333h.406zm.813 0v4.044h-.406V4.333h.406zm.813 0v4.044h-.406V4.333h.406zM5.01 0v4.044h-.406V0h.406zm.813 0v4.044h-.406V0h.406zm.813 0v4.044H6.23V0h.406zm.813 0v4.044h-.406V0h.406z" fill="#d00f3a" mask="url(#g)"/>
</g>
</g>
</g>
</svg>
